X: 1
T:Montagnarde de Sainte-Anne
C:Eric Elsener
N:abc transcription Simon Wascher
N:if you find an error in this transcription please inform simon.wascher@chello.at
R:Bourree
M:3/8
L:1/16
K:G
FG|A2c2B2|A4G2|FGAFDF|B2G2FG| A2c2B2|A4G2|FGAFDF|G4:|
|:A2|_B2ABAG|F4E2|DEF2G2|_B2A2GA| _B2ABAG|F4E2|DEF2A2|G4:|
<end>
<start>
